bundles/org.openhab.ui.habpanel/web/assets/icons/smarthome-set/smartphone.svg

<?xml version="1.0" encoding="UTF-8" standalone="no"?>
<svg width="32px" height="32px" viewBox="0 0 32 32" version="1.1" xmlns="http://www.w3.org/2000/svg" xmlns:xlink="http://www.w3.org/1999/xlink" xmlns:sketch="http://www.bohemiancoding.com/sketch/ns">
    <!-- Generator: Sketch 3.3.2 (12043) - http://www.bohemiancoding.com/sketch -->
    <title>smartphone</title>
    <desc>Created with Sketch.</desc>
    <defs></defs>
    <g id="flatten" stroke="none" stroke-width="1" fill="none" fill-rule="evenodd" sketch:type="MSPage">
        <g id="z-copy" sketch:type="MSArtboardGroup" transform="translate(-132.000000, -68.000000)" fill="#000000">
            <g id="smartphone" sketch:type="MSLayerGroup" transform="translate(132.000000, 68.000000)">
                <path d="M12,12.7942017 L12,18.0018986 C12,19.1132936 12.7162065,20 13.599692,20 L18.400308,20 C19.2900534,20 20,19.1054196 20,18.0018986 L20,12.7942017 L20.2571785,12.9370786 C20.4985704,13.0711852 20.802972,12.9842133 20.9370786,12.7428215 C21.0711852,12.5014296 20.9842133,12.197028 20.7428215,12.0629214 L16.2428215,9.56292136 L16,9.42802055 L15.7571785,9.56292136 L11.2571785,12.0629214 C11.0157867,12.197028 10.9288148,12.5014296 11.0629214,12.7428215 C11.197028,12.9842133 11.5014296,13.0711852 11.7428215,12.9370786 L12,12.7942017 L12,12.7942017 Z M19,12.2386461 L19,18.0018986 C19,18.5990577 18.6798708,19 18.400308,19 L13.599692,19 C13.320594,19 13,18.6006508 13,18.0018986 L13,12.2386461 L16.2428215,10.4370786 L15.7571785,10.4370786 L19,12.2386461 L19,12.2386461 Z M25,26 L25,28.0025769 C25,29.0598822 23.9650543,30 22.600847,30 L9.39915296,30 C8.03267518,30 7,29.0606305 7,27.9957423 L7,26 L25,26 L25,26 L25,26 Z M25,25 L25,3.99743399 C25,2.94417393 23.9624807,2 22.600847,2 L9.39915296,2 C8.03562255,2 7,2.94234103 7,4.0042577 L7,25 L25,25 L25,25 L25,25 Z M27,28.0025769 C27,30.2102927 25.0282856,32 22.600847,32 L9.39915296,32 C6.96956787,32 5,30.2109725 5,27.9957423 L5,4.0042577 C5,1.79276724 6.97171441,0 9.39915296,0 L22.600847,0 C25.0304321,0 27,1.79829425 27,3.99743399 L27,28.0025769 L27,28.0025769 Z M16,29 C15.4477153,29 15,28.5522847 15,28 C15,27.4477153 15.4477153,27 16,27 C16.5522847,27 17,27.4477153 17,28 C17,28.5522847 16.5522847,29 16,29 L16,29 Z" sketch:type="MSShapeGroup"></path>
            </g>
        </g>
    </g>
</svg>

<svg width="32" height="32" xmlns="http://www.w3.org/2000/svg"><path d="M12 12.794v5.208c0 1.111.716 1.998 1.6 1.998h4.8c.89 0 1.6-.895 1.6-1.998v-5.208l.257.143a.5.5 0 0 0 .486-.874l-4.5-2.5L16 9.428l-.243.135-4.5 2.5a.5.5 0 0 0 .486.874l.257-.143Zm7-.555v5.763c0 .597-.32.998-.6.998h-4.8c-.28 0-.6-.4-.6-.998v-5.763l3.243-1.802h-.486L19 12.24ZM25 26v2.003C25 29.06 23.965 30 22.6 30H9.4C8.032 30 7 29.06 7 27.996V26h18Zm0-1V3.997C25 2.944 23.962 2 22.6 2H9.4C8.035 2 7 2.942 7 4.004V25h18Zm2 3.003C27 30.21 25.028 32 22.6 32H9.4C6.97 32 5 30.211 5 27.996V4.004C5 1.793 6.972 0 9.4 0h13.2C25.03 0 27 1.798 27 3.997v24.006ZM16 29a1 1 0 1 1 0-2 1 1 0 0 1 0 2Z" fill="#000" fill-rule="evenodd"/></svg>
